X:101
T:Trip To Skye (J. Whelan)
C:Skolvan
M:3/4
L:1/8
K:C
e2 dc BA|Bd GA Bd|c2 Bd cB|c2 A2 A2|\
e2 dc BA|Bd GA Bd|c2 Bd cB|AG ED EG:|
|:E2 AB c2|E2 AB cA|Bd GA Bd|cB AG ED|\
E2 AB c2|E2 AB cA|\
Bd GA Bd|1c2 ~B2~A2:|2 cA Bc BA||**
